Newaita-dark/.places-darknight/22/user-bookmarks.svg

<?xml version="1.0" encoding="UTF-8"?>
<svg xmlns="http://www.w3.org/2000/svg" xmlns:xlink="http://www.w3.org/1999/xlink" width="22pt" height="22pt" viewBox="0 0 22 22" version="1.1">
<defs>
<radialGradient id="radial0" gradientUnits="userSpaceOnUse" cx="450.908936" cy="189.579361" fx="450.908936" fy="189.579361" r="21.166656" gradientTransform="matrix(0.000000119742,-0.0537161,-0.0966889,-0.0000000698078,23.787727,43.721791)">
<stop offset="0" style="stop-color:rgb(0%,0%,0%);stop-opacity:0.313725;"/>
<stop offset="0.222222" style="stop-color:rgb(0%,0%,0%);stop-opacity:0.27451;"/>
<stop offset="1" style="stop-color:rgb(0%,0%,0%);stop-opacity:0;"/>
</radialGradient>
<radialGradient id="radial1" gradientUnits="userSpaceOnUse" cx="450.908936" cy="189.579361" fx="450.908936" fy="189.579361" r="21.166656" gradientTransform="matrix(-0.000000119742,0.0537161,0.0966889,0.0000000698078,-12.417822,-5.175142)">
<stop offset="0" style="stop-color:rgb(0%,0%,0%);stop-opacity:0.313725;"/>
<stop offset="0.222222" style="stop-color:rgb(0%,0%,0%);stop-opacity:0.27451;"/>
<stop offset="1" style="stop-color:rgb(0%,0%,0%);stop-opacity:0;"/>
</radialGradient>
<radialGradient id="radial2" gradientUnits="userSpaceOnUse" cx="450.908936" cy="189.579361" fx="450.908936" fy="189.579361" r="21.166656" gradientTransform="matrix(-0.000000119742,-0.0537161,0.0966889,-0.0000000698078,-12.417822,43.721791)">
<stop offset="0" style="stop-color:rgb(0%,0%,0%);stop-opacity:0.313725;"/>
<stop offset="0.222222" style="stop-color:rgb(0%,0%,0%);stop-opacity:0.27451;"/>
<stop offset="1" style="stop-color:rgb(0%,0%,0%);stop-opacity:0;"/>
</radialGradient>
<radialGradient id="radial3" gradientUnits="userSpaceOnUse" cx="450.908936" cy="189.579361" fx="450.908936" fy="189.579361" r="21.166656" gradientTransform="matrix(0.000000119742,0.0537161,-0.0966889,0.0000000698078,23.787725,-5.175142)">
<stop offset="0" style="stop-color:rgb(0%,0%,0%);stop-opacity:0.313725;"/>
<stop offset="0.222222" style="stop-color:rgb(0%,0%,0%);stop-opacity:0.27451;"/>
<stop offset="1" style="stop-color:rgb(0%,0%,0%);stop-opacity:0;"/>
</radialGradient>
<radialGradient id="radial4" gradientUnits="userSpaceOnUse" cx="450.908936" cy="189.579361" fx="450.908936" fy="189.579361" r="21.166656" gradientTransform="matrix(0.000000119742,-0.0537161,-0.0966889,-0.0000000698078,34.020637,43.721791)">
<stop offset="0" style="stop-color:rgb(0%,0%,0%);stop-opacity:0.313725;"/>
<stop offset="0.222222" style="stop-color:rgb(0%,0%,0%);stop-opacity:0.27451;"/>
<stop offset="1" style="stop-color:rgb(0%,0%,0%);stop-opacity:0;"/>
</radialGradient>
<radialGradient id="radial5" gradientUnits="userSpaceOnUse" cx="450.908936" cy="189.579361" fx="450.908936" fy="189.579361" r="21.166656" gradientTransform="matrix(-0.000000119742,0.0537161,0.0966889,0.0000000698078,-2.184912,-5.175142)">
<stop offset="0" style="stop-color:rgb(0%,0%,0%);stop-opacity:0.313725;"/>
<stop offset="0.222222" style="stop-color:rgb(0%,0%,0%);stop-opacity:0.27451;"/>
<stop offset="1" style="stop-color:rgb(0%,0%,0%);stop-opacity:0;"/>
</radialGradient>
<radialGradient id="radial6" gradientUnits="userSpaceOnUse" cx="450.908936" cy="189.579361" fx="450.908936" fy="189.579361" r="21.166656" gradientTransform="matrix(-0.000000119742,-0.0537161,0.0966889,-0.0000000698078,-2.184912,43.721791)">
<stop offset="0" style="stop-color:rgb(0%,0%,0%);stop-opacity:0.313725;"/>
<stop offset="0.222222" style="stop-color:rgb(0%,0%,0%);stop-opacity:0.27451;"/>
<stop offset="1" style="stop-color:rgb(0%,0%,0%);stop-opacity:0;"/>
</radialGradient>
<radialGradient id="radial7" gradientUnits="userSpaceOnUse" cx="450.908936" cy="189.579361" fx="450.908936" fy="189.579361" r="21.166656" gradientTransform="matrix(0.000000119742,0.0537161,-0.0966889,0.0000000698078,34.020636,-5.175142)">
<stop offset="0" style="stop-color:rgb(0%,0%,0%);stop-opacity:0.313725;"/>
<stop offset="0.222222" style="stop-color:rgb(0%,0%,0%);stop-opacity:0.27451;"/>
<stop offset="1" style="stop-color:rgb(0%,0%,0%);stop-opacity:0;"/>
</radialGradient>
<linearGradient id="linear0" gradientUnits="userSpaceOnUse" x1="960" y1="1695.118164" x2="960" y2="175.118134" gradientTransform="matrix(0.0113699,0,0,0.0113699,0,0)">
<stop offset="0" style="stop-color:rgb(38.039216%,38.039216%,38.039216%);stop-opacity:1;"/>
<stop offset="1" style="stop-color:rgb(45.882353%,45.882353%,45.882353%);stop-opacity:1;"/>
</linearGradient>
</defs>
<g id="surface1">
<path style=" stroke:none;fill-rule:nonzero;fill:url(#radial0);" d="M 5.683594 19.273438 L 7.503906 19.273438 L 7.503906 18.363281 L 5.683594 18.363281 Z M 5.683594 19.273438 "/>
<path style=" stroke:none;fill-rule:nonzero;fill:url(#radial1);" d="M 5.683594 19.273438 L 3.867188 19.273438 L 3.867188 20.183594 L 5.683594 20.183594 Z M 5.683594 19.273438 "/>
<path style=" stroke:none;fill-rule:nonzero;fill:url(#radial2);" d="M 5.683594 19.273438 L 3.867188 19.273438 L 3.867188 18.363281 L 5.683594 18.363281 Z M 5.683594 19.273438 "/>
<path style=" stroke:none;fill-rule:nonzero;fill:url(#radial3);" d="M 5.683594 19.273438 L 7.503906 19.273438 L 7.503906 20.183594 L 5.683594 20.183594 Z M 5.683594 19.273438 "/>
<path style=" stroke:none;fill-rule:nonzero;fill:url(#radial4);" d="M 15.917969 19.273438 L 17.738281 19.273438 L 17.738281 18.363281 L 15.917969 18.363281 Z M 15.917969 19.273438 "/>
<path style=" stroke:none;fill-rule:nonzero;fill:url(#radial5);" d="M 15.917969 19.273438 L 14.097656 19.273438 L 14.097656 20.183594 L 15.917969 20.183594 Z M 15.917969 19.273438 "/>
<path style=" stroke:none;fill-rule:nonzero;fill:url(#radial6);" d="M 15.917969 19.273438 L 14.097656 19.273438 L 14.097656 18.363281 L 15.917969 18.363281 Z M 15.917969 19.273438 "/>
<path style=" stroke:none;fill-rule:nonzero;fill:url(#radial7);" d="M 15.917969 19.273438 L 17.738281 19.273438 L 17.738281 20.183594 L 15.917969 20.183594 Z M 15.917969 19.273438 "/>
<path style=" stroke:none;fill-rule:nonzero;fill:url(#linear0);" d="M 5.914062 1.992188 C 5.410156 1.992188 5.003906 2.398438 5.003906 2.902344 L 5.003906 18.25 C 4.949219 18.636719 5.152344 19.015625 5.503906 19.191406 C 5.859375 19.363281 6.28125 19.289062 6.554688 19.007812 L 10.914062 14.648438 L 15.273438 19.007812 C 15.550781 19.289062 15.972656 19.363281 16.328125 19.1875 C 16.679688 19.015625 16.882812 18.632812 16.828125 18.246094 L 16.828125 2.902344 C 16.828125 2.398438 16.421875 1.992188 15.917969 1.992188 Z M 5.914062 1.992188 "/>
<path style=" stroke:none;fill-rule:nonzero;fill:rgb(100%,100%,100%);fill-opacity:0.392157;" d="M 5.914062 1.992188 C 5.410156 1.992188 5.003906 2.398438 5.003906 2.902344 L 5.003906 3.128906 C 5.003906 2.625 5.410156 2.21875 5.914062 2.21875 L 15.917969 2.21875 C 16.421875 2.21875 16.828125 2.625 16.828125 3.128906 L 16.828125 2.902344 C 16.828125 2.398438 16.421875 1.992188 15.917969 1.992188 Z M 16.828125 18.246094 L 16.828125 18.472656 C 16.828125 18.476562 16.828125 18.480469 16.828125 18.480469 C 16.839844 18.402344 16.839844 18.324219 16.828125 18.246094 Z M 5.003906 18.25 C 4.992188 18.328125 4.992188 18.40625 5.003906 18.484375 C 5.003906 18.480469 5.003906 18.476562 5.003906 18.476562 Z M 5.003906 18.25 "/>
<path style=" stroke:none;fill-rule:nonzero;fill:rgb(0%,0%,0%);fill-opacity:0.235294;" d="M 10.914062 14.425781 L 6.554688 18.785156 C 6.3125 19.035156 5.945312 19.121094 5.613281 19.011719 C 5.28125 18.898438 5.042969 18.605469 5 18.257812 C 4.953125 18.644531 5.15625 19.019531 5.507812 19.191406 C 5.863281 19.359375 6.28125 19.285156 6.554688 19.007812 L 10.914062 14.648438 L 15.273438 19.007812 C 15.546875 19.289062 15.96875 19.363281 16.320312 19.191406 C 16.675781 19.023438 16.878906 18.644531 16.828125 18.257812 C 16.789062 18.605469 16.550781 18.898438 16.21875 19.011719 C 15.886719 19.125 15.519531 19.035156 15.273438 18.785156 Z M 10.914062 14.425781 "/>
<path style=" stroke:none;fill-rule:nonzero;fill:rgb(12.941177%,12.941177%,12.941177%);fill-opacity:1;" d="M 5.914062 1.925781 C 5.375 1.925781 4.9375 2.363281 4.9375 2.902344 L 4.9375 18.246094 C 4.882812 18.660156 5.101562 19.0625 5.476562 19.246094 C 5.855469 19.433594 6.308594 19.351562 6.601562 19.050781 L 10.914062 14.738281 L 15.226562 19.050781 C 15.523438 19.355469 15.976562 19.433594 16.355469 19.246094 C 16.734375 19.0625 16.949219 18.65625 16.890625 18.242188 L 16.890625 2.902344 C 16.890625 2.363281 16.457031 1.925781 15.917969 1.925781 Z M 5.914062 2.054688 L 15.917969 2.054688 C 16.386719 2.054688 16.761719 2.429688 16.761719 2.902344 L 16.761719 18.246094 C 16.761719 18.246094 16.761719 18.25 16.761719 18.253906 C 16.816406 18.617188 16.628906 18.96875 16.300781 19.132812 C 15.96875 19.292969 15.574219 19.222656 15.320312 18.960938 L 10.960938 14.601562 C 10.933594 14.578125 10.894531 14.578125 10.871094 14.601562 L 6.511719 18.960938 C 6.253906 19.222656 5.859375 19.292969 5.53125 19.132812 C 5.203125 18.972656 5.015625 18.617188 5.066406 18.257812 C 5.066406 18.253906 5.066406 18.25 5.066406 18.25 L 5.066406 2.902344 C 5.066406 2.429688 5.441406 2.054688 5.914062 2.054688 Z M 5.914062 2.054688 "/>
</g>
</svg>

<svg xmlns="http://www.w3.org/2000/svg" width="22pt" height="22pt" viewBox="0 0 22 22"><defs><radialGradient id="a" gradientUnits="userSpaceOnUse" cx="450.909" cy="189.579" fx="450.909" fy="189.579" r="21.167" gradientTransform="matrix(0 -.05372 -.09669 0 23.788 43.722)"><stop offset="0" stop-opacity=".314"/><stop offset=".222" stop-opacity=".275"/><stop offset="1" stop-opacity="0"/></radialGradient><radialGradient id="b" gradientUnits="userSpaceOnUse" cx="450.909" cy="189.579" fx="450.909" fy="189.579" r="21.167" gradientTransform="matrix(0 .05372 .09669 0 -12.418 -5.175)"><stop offset="0" stop-opacity=".314"/><stop offset=".222" stop-opacity=".275"/><stop offset="1" stop-opacity="0"/></radialGradient><radialGradient id="c" gradientUnits="userSpaceOnUse" cx="450.909" cy="189.579" fx="450.909" fy="189.579" r="21.167" gradientTransform="matrix(0 -.05372 .09669 0 -12.418 43.722)"><stop offset="0" stop-opacity=".314"/><stop offset=".222" stop-opacity=".275"/><stop offset="1" stop-opacity="0"/></radialGradient><radialGradient id="d" gradientUnits="userSpaceOnUse" cx="450.909" cy="189.579" fx="450.909" fy="189.579" r="21.167" gradientTransform="matrix(0 .05372 -.09669 0 23.788 -5.175)"><stop offset="0" stop-opacity=".314"/><stop offset=".222" stop-opacity=".275"/><stop offset="1" stop-opacity="0"/></radialGradient><radialGradient id="e" gradientUnits="userSpaceOnUse" cx="450.909" cy="189.579" fx="450.909" fy="189.579" r="21.167" gradientTransform="matrix(0 -.05372 -.09669 0 34.02 43.722)"><stop offset="0" stop-opacity=".314"/><stop offset=".222" stop-opacity=".275"/><stop offset="1" stop-opacity="0"/></radialGradient><radialGradient id="f" gradientUnits="userSpaceOnUse" cx="450.909" cy="189.579" fx="450.909" fy="189.579" r="21.167" gradientTransform="matrix(0 .05372 .09669 0 -2.185 -5.175)"><stop offset="0" stop-opacity=".314"/><stop offset=".222" stop-opacity=".275"/><stop offset="1" stop-opacity="0"/></radialGradient><radialGradient id="g" gradientUnits="userSpaceOnUse" cx="450.909" cy="189.579" fx="450.909" fy="189.579" r="21.167" gradientTransform="matrix(0 -.05372 .09669 0 -2.185 43.722)"><stop offset="0" stop-opacity=".314"/><stop offset=".222" stop-opacity=".275"/><stop offset="1" stop-opacity="0"/></radialGradient><radialGradient id="h" gradientUnits="userSpaceOnUse" cx="450.909" cy="189.579" fx="450.909" fy="189.579" r="21.167" gradientTransform="matrix(0 .05372 -.09669 0 34.02 -5.175)"><stop offset="0" stop-opacity=".314"/><stop offset=".222" stop-opacity=".275"/><stop offset="1" stop-opacity="0"/></radialGradient><linearGradient id="i" gradientUnits="userSpaceOnUse" x1="960" y1="1695.118" x2="960" y2="175.118" gradientTransform="rotate(.24) scale(.01137)"><stop offset="0" stop-color="#616161"/><stop offset="1" stop-color="#757575"/></linearGradient></defs><path d="M5.684 19.273h1.82v-.91h-1.82zm0 0" fill="url(#a)"/><path d="M5.684 19.273H3.867v.91h1.817zm0 0" fill="url(#b)"/><path d="M5.684 19.273H3.867v-.91h1.817zm0 0" fill="url(#c)"/><path d="M5.684 19.273h1.82v.91h-1.82zm0 0" fill="url(#d)"/><path d="M15.918 19.273h1.82v-.91h-1.82zm0 0" fill="url(#e)"/><path d="M15.918 19.273h-1.82v.91h1.82zm0 0" fill="url(#f)"/><path d="M15.918 19.273h-1.82v-.91h1.82zm0 0" fill="url(#g)"/><path d="M15.918 19.273h1.82v.91h-1.82zm0 0" fill="url(#h)"/><path d="M5.914 1.992a.909.909 0 0 0-.91.91V18.25a.913.913 0 0 0 .5.941.91.91 0 0 0 1.05-.183l4.36-4.36 4.36 4.36a.91.91 0 1 0 1.555-.762V2.902a.909.909 0 0 0-.911-.91zm0 0" fill="url(#i)"/><path d="M5.914 1.992a.909.909 0 0 0-.91.91v.227c0-.504.406-.91.91-.91h10.004c.504 0 .91.406.91.91v-.227a.909.909 0 0 0-.91-.91zm10.914 16.254v.234a.786.786 0 0 0 0-.234zm-11.824.004a.786.786 0 0 0 0 .234v-.007zm0 0" fill="#fff" fill-opacity=".392"/><path d="M10.914 14.426l-4.36 4.36a.913.913 0 0 1-.94.226.916.916 0 0 1-.614-.754.917.917 0 0 0 .508.933.917.917 0 0 0 1.047-.183l4.36-4.36 4.358 4.36a.905.905 0 0 0 1.047.183.902.902 0 0 0 .508-.933.905.905 0 0 1-.61.754.914.914 0 0 1-.945-.227zm0 0" fill-opacity=".235"/><path d="M5.914 1.926a.977.977 0 0 0-.976.976v15.344a.974.974 0 0 0 1.664.805l4.312-4.313 4.313 4.313a.97.97 0 0 0 1.128.195.965.965 0 0 0 .536-1.004V2.902a.974.974 0 0 0-.973-.976zm0 .129h10.004c.469 0 .844.375.844.847V18.254a.842.842 0 0 1-1.442.707l-4.36-4.36c-.026-.023-.065-.023-.089 0l-4.36 4.36a.845.845 0 1 1-1.445-.703V2.902c0-.472.375-.847.848-.847zm0 0" fill="#212121"/></svg>
